X: 23000
T: Last Chance, The
R: polka
M: 2/4
K: Adorian
|:A>B cd|ea ed|cA AB/c/|dB GB|
A>B cd|/e/f/g ed|cA BG|A2 A2:|
|:ea e>d|ea ed|cA AB/c/|dB GB|
[A>B cd|e/f/g ed|cA BG|A2 A2:|

